X: 6884
T: Chase The Shouting Wind
R: three-two
M: 3/2
K: Bminor
|:B2 d2 e2 B2 d2 e2|b3 a f2 ab af d2|G2 A2 B2 AA d2 BB|g2 ff ga d2 de c2|
B2 d2 e2 B2 d2 e2|b3 a f2 ab afdd|GABA Adga bage|1 a2 d2 d2 e2 c2 z2:|2 a2 d2 d2 e2 a2 b2||
|:B4 E2 c4 d2|d4 E2 A2 B2 d2|d4 E2 A2 B2 d2|e2 dB A2 FF GB d2|
B4 EE c4 d2|d4 E2 A2 B2 d2|G2 D2 A2 D2 B2 D2|1 E4 E2 E2 D2 B,2:|2 d2 c6||

